assets/icons/audio-card.svg

<?xml version="1.0" encoding="UTF-8" standalone="no"?>
<svg
   viewBox="0 0 24 24"
   height="24"
   width="24"
   version="1.1"
   id="svg4"
   sodipodi:docname="card.svg"
   inkscape:version="1.2 (1:1.2.1+202207142221+cd75a1ee6d)"
   xmlns:inkscape="http://www.inkscape.org/namespaces/inkscape"
   xmlns:sodipodi="http://sodipodi.sourceforge.net/DTD/sodipodi-0.dtd"
   xmlns="http://www.w3.org/2000/svg"
   xmlns:svg="http://www.w3.org/2000/svg">
  <defs
     id="defs8" />
  <sodipodi:namedview
     id="namedview6"
     pagecolor="#ffffff"
     bordercolor="#666666"
     borderopacity="1.0"
     inkscape:pageshadow="2"
     inkscape:pageopacity="0.0"
     inkscape:pagecheckerboard="0"
     showgrid="true"
     inkscape:snap-page="true"
     inkscape:zoom="32"
     inkscape:cx="7.78125"
     inkscape:cy="11.140625"
     inkscape:window-width="1920"
     inkscape:window-height="1016"
     inkscape:window-x="0"
     inkscape:window-y="0"
     inkscape:window-maximized="1"
     inkscape:current-layer="svg4"
     inkscape:showpageshadow="2"
     inkscape:deskcolor="#d1d1d1">
    <inkscape:grid
       type="xygrid"
       id="grid6" />
    <inkscape:grid
       type="xygrid"
       id="grid823"
       dotted="true"
       spacingx="0.5"
       spacingy="0.5"
       empspacing="10" />
  </sodipodi:namedview>
  <path
     id="path847"
     style="fill:#808080;fill-opacity:1;fill-rule:evenodd;stroke-width:0.999999;stroke-linecap:square;stroke-linejoin:round"
     d="M 6.5 3 C 5.8348228 3 5.2584906 3.0115787 4.7578125 3.0664062 C 4.424027 3.102958 4.1230522 3.1590219 3.8535156 3.2421875 C 3.449211 3.3669359 3.1136678 3.5543009 2.8339844 3.8339844 C 2.5543009 4.1136678 2.3669359 4.449211 2.2421875 4.8535156 C 2.1590219 5.1230522 2.102958 5.424027 2.0664062 5.7578125 C 2.0115787 6.2584906 2 6.8348228 2 7.5 L 2 14.5 C 2 15.167249 2.0216042 15.732087 2.0839844 16.222656 C 2.1047778 16.38618 2.1293363 16.541361 2.1601562 16.689453 C 2.1909761 16.837545 2.2272158 16.979868 2.2714844 17.115234 C 2.4042901 17.521334 2.6023157 17.867327 2.8867188 18.138672 C 3.1711218 18.410016 3.508213 18.592559 3.9082031 18.716797 C 4.0415333 18.75821 4.1822719 18.79256 4.3300781 18.822266 C 4.9213027 18.941086 5.6308247 18.975748 6.4863281 19 L 6.4921875 19 L 13 19 L 13 20.544922 C 13 20.797369 13.202631 21 13.455078 21 L 19.544922 21 C 19.797369 21 20 20.797369 20 20.544922 L 20 18.955078 C 20 18.900489 19.990061 18.849167 19.972656 18.800781 C 20.452999 18.677721 20.848439 18.483592 21.166016 18.166016 C 21.911838 17.420192 22 16.273806 22 14.5 L 22 7.5 C 22 5.7261941 21.911839 4.5798068 21.166016 3.8339844 C 20.420192 3.0881618 19.273806 3 17.5 3 L 6.5 3 z M 6.5 4 L 17.5 4 C 19.226187 4 20.07981 4.1618404 20.458984 4.5410156 C 20.83816 4.9201909 21 5.773813 21 7.5 L 21 14.5 C 21 16.226187 20.83816 17.07981 20.458984 17.458984 C 20.07981 17.83816 19.226187 18 17.5 18 L 6.5136719 18 C 4.840701 17.95257 3.9717654 17.791492 3.5761719 17.414062 C 3.3783751 17.225349 3.2366441 16.957093 3.1386719 16.486328 C 3.0407 16.015564 3 15.360331 3 14.5 L 3 7.5 C 3 7.2842268 3.0026466 7.0818612 3.0078125 6.8925781 C 3.0439737 5.5675956 3.2092373 4.872794 3.5410156 4.5410156 C 3.6358095 4.4462218 3.7596019 4.365369 3.9199219 4.296875 C 4.0000819 4.262628 4.0905788 4.2311222 4.1894531 4.203125 C 4.6838246 4.0631389 5.4211331 4 6.5 4 z M 18.5 5.75 C 18.176456 5.75 17.897115 5.9603131 17.792969 6.25 L 14.25 6.25 L 14.25 16.5 L 14.75 16.5 L 14.75 6.75 L 17.792969 6.75 C 17.897115 7.0396869 18.176456 7.25 18.5 7.25 C 18.911252 7.25 19.25 6.9112516 19.25 6.5 C 19.25 6.0887484 18.911252 5.75 18.5 5.75 z M 11.658203 6.5898438 L 7.015625 7.5175781 C 6.9283141 7.5175781 6.8574219 7.6213929 6.8574219 7.75 L 6.8574219 13.322266 C 6.6566201 13.171257 6.4114039 13.090105 6.1601562 13.089844 C 5.519111 13.089844 5 13.608955 5 14.25 C 5 14.891045 5.519111 15.410156 6.1601562 15.410156 C 6.7818244 15.408756 7.2931062 14.918031 7.3183594 14.296875 C 7.3204794 14.281735 7.3222656 14.26607 7.3222656 14.25 L 7.3222656 9.3339844 L 11.5 8.4980469 L 11.5 12.857422 C 11.299198 12.706412 11.053982 12.625262 10.802734 12.625 C 10.16169 12.625 9.6425781 13.144111 9.6425781 13.785156 C 9.6425781 14.426202 10.16169 14.947266 10.802734 14.947266 C 11.424403 14.945866 11.935685 14.453188 11.960938 13.832031 C 11.963037 13.816881 11.964844 13.801226 11.964844 13.785156 L 11.964844 6.8222656 C 11.964844 6.6936585 11.893956 6.5898438 11.806641 6.5898438 L 11.658203 6.5898438 z M 18.5 8.75 C 18.176456 8.75 17.897115 8.9603131 17.792969 9.25 L 16.25 9.25 L 16.25 16.5 L 16.75 16.5 L 16.75 9.75 L 17.792969 9.75 C 17.897115 10.039687 18.176456 10.25 18.5 10.25 C 18.911252 10.25 19.25 9.9112516 19.25 9.5 C 19.25 9.0887484 18.911252 8.75 18.5 8.75 z M 18.5 11.75 C 18.088748 11.75 17.75 12.088748 17.75 12.5 C 17.75 12.823544 17.960313 13.102885 18.25 13.207031 L 18.25 16.5 L 18.75 16.5 L 18.75 13.207031 C 19.039687 13.102885 19.25 12.823544 19.25 12.5 C 19.25 12.088748 18.911252 11.75 18.5 11.75 z M 14 19 L 15 19 L 15 20 L 14 20 L 14 19 z M 16 19 L 17 19 L 17 20 L 16 20 L 16 19 z M 18 19 L 19 19 L 19 20 L 18 20 L 18 19 z " />
</svg>

<svg height="24" width="24" xmlns="http://www.w3.org/2000/svg"><path style="fill:gray;fill-opacity:1;stroke-width:.999999;stroke-linecap:square;stroke-linejoin:round" d="M6.5 3c-.665 0-1.242.012-1.742.066a4.877 4.877 0 0 0-.904.176c-.405.125-.74.312-1.02.592-.28.28-.467.615-.592 1.02-.083.27-.139.57-.176.904C2.012 6.258 2 6.835 2 7.5v7c0 .667.022 1.232.084 1.723a5.6 5.6 0 0 0 .076.466c.031.149.067.29.111.426.133.406.331.752.616 1.024.284.271.621.454 1.021.578.134.041.274.076.422.105.591.12 1.3.154 2.156.178H13v1.545c0 .252.203.455.455.455h6.09a.454.454 0 0 0 .455-.455v-1.59a.453.453 0 0 0-.027-.154c.48-.123.875-.317 1.193-.635.746-.746.834-1.892.834-3.666v-7c0-1.774-.088-2.92-.834-3.666S19.274 3 17.5 3h-11zm0 1h11c1.726 0 2.58.162 2.959.541.38.38.541 1.233.541 2.959v7c0 1.726-.162 2.58-.541 2.959-.38.38-1.233.541-2.959.541H6.514c-1.673-.047-2.542-.209-2.938-.586-.198-.189-.34-.457-.437-.928C3.04 16.016 3 15.36 3 14.5v-7c0-.216.003-.418.008-.607.036-1.325.201-2.02.533-2.352.095-.095.219-.176.379-.244.08-.034.17-.066.27-.094C4.683 4.063 5.42 4 6.5 4zm12 1.75a.756.756 0 0 0-.707.5H14.25V16.5h.5V6.75h3.043c.104.29.383.5.707.5.411 0 .75-.339.75-.75a.754.754 0 0 0-.75-.75zm-6.842.84-4.642.928c-.088 0-.159.103-.159.232v5.572a1.16 1.16 0 1 0 .46.975.337.337 0 0 0 .005-.047V9.334l4.178-.836v4.36a1.16 1.16 0 0 0-1.857.928c0 .64.519 1.161 1.16 1.161a1.163 1.163 0 0 0 1.158-1.115.34.34 0 0 0 .004-.047V6.822c0-.128-.071-.232-.158-.232h-.149zM18.5 8.75a.756.756 0 0 0-.707.5H16.25v7.25h.5V9.75h1.043c.104.29.383.5.707.5.411 0 .75-.339.75-.75a.754.754 0 0 0-.75-.75zm0 3a.754.754 0 0 0-.75.75c0 .324.21.603.5.707V16.5h.5v-3.293c.29-.104.5-.383.5-.707a.754.754 0 0 0-.75-.75zM14 19h1v1h-1v-1zm2 0h1v1h-1v-1zm2 0h1v1h-1v-1z"/></svg>
